X:511
T:Mayfair. (p)1703.PLFD1.511
T:Grief a la Mode. (p)1703.PLFD1.511
M:6/4
L:1/4
Q:3/4=90
S:Playford, Dancing Master,12th Ed.,1703.
O:England;London
Z:Chris Partington.
K:F
f2agec|f3A2d|cAFE/4F/<GC|f2agec|
f3A2d|cB/A/G/F/F3:||:G>AGcAF|f3a3|
d>efgf/e/d/c/|c3c2d|_e>fed2a|b>age>dc|
f>gagec|f2dA2d|cB/A/G/F/F3:|
